images/house-pink.svg

<?xml version="1.0" encoding="UTF-8"?><svg xmlns="http://www.w3.org/2000/svg" viewBox="0 0 10.51 12.54"><defs><style>.d{fill:#e9528e;}</style></defs><g id="a"/><g id="b"><g id="c"><g><rect class="d" x=".43" y="11.65" width="9.65" height=".89"/><polygon class="d" points="8.93 6.77 8.93 11.48 6.45 11.48 6.45 7.05 4.23 7.05 4.23 11.48 1.75 11.48 1.75 6.59 5.21 3.25 8.93 6.77"/><polygon class="d" points="7.84 3.93 7.84 3.92 7.84 3.93 7.84 3.93"/><path class="d" d="M10.39,5.35c-.09,.09-.21,.14-.33,.14-.11,0-.22-.04-.31-.12l-1.91-1.8h0L5.21,1.08,.98,5.15l-.22,.21c-.18,.17-.46,.17-.64-.01-.17-.18-.17-.46,.01-.64l.85-.82L4.89,.13c.17-.17,.45-.17,.62,0h0l2.32,2.2v-.75h-.21v-.5h1.62v.5h-.21v1.88l.71,.67,.62,.59c.18,.17,.19,.46,.02,.64Z"/></g></g></g></svg>

<?xml version="1.0" encoding="utf-8"?>
<!-- Generator: Adobe Illustrator 26.2.1, SVG Export Plug-In . SVG Version: 6.00 Build 0)  -->
<svg version="1.1" id="Layer_1" xmlns="http://www.w3.org/2000/svg" xmlns:xlink="http://www.w3.org/1999/xlink" x="0px" y="0px"
	 viewBox="0 0 10.5 12.5" style="enable-background:new 0 0 10.5 12.5;" xml:space="preserve">
<style type="text/css">
	.st0{fill:#FF9800;}
</style>
<g id="a">
</g>
<g id="b">
	<g id="c">
		<g>
			<rect x="0.4" y="11.6" class="st0" width="9.6" height="0.9"/>
			<polygon class="st0" points="8.9,6.8 8.9,11.5 6.4,11.5 6.4,7.1 4.2,7.1 4.2,11.5 1.8,11.5 1.8,6.6 5.2,3.2 			"/>
			<polygon class="st0" points="7.8,3.9 7.8,3.9 7.8,3.9 			"/>
			<path class="st0" d="M10.4,5.3c-0.1,0.1-0.2,0.1-0.3,0.1c-0.1,0-0.2,0-0.3-0.1L7.8,3.6l0,0L5.2,1.1L1,5.2L0.8,5.4
				c-0.2,0.2-0.5,0.2-0.6,0C0,5.2,0,4.9,0.1,4.7L1,3.9l3.9-3.8C5.1,0,5.3,0,5.5,0.1l0,0l2.3,2.2V1.6H7.6V1.1h1.6v0.5H9v1.9l0.7,0.7
				l0.6,0.6C10.5,4.9,10.5,5.2,10.4,5.3L10.4,5.3z"/>
		</g>
	</g>
</g>
</svg>
